!!!COM: Mozart
!!!OTL: Andante and variations in G for piano duet, K501
!!!Variation: Variation 5 f
**function	**harm	**kern	**kern	**kern	**kern
*	*	*clefF4	*clefF4	*clefG2	*clefG2
*	*	*k[f#]	*k[f#]	*k[f#]	*k[f#]
*M2/4	*M2/4	*M2/4	*M2/4	*M2/4	*M2/4
*G:	*G:	*G:	*G:	*G:	*G:
4T	4I	4r	16BLL	4r	8r
.	.	.	16A	.	.
.	.	.	16G	.	(8g
.	.	.	16FJJ	.	.
=149	=149	=149	=149	=149	=149
4T	4IVc	2GGG] 2GG]	16ELL	2g	8ccL
.	.	.	16G	.	.
.	.	.	16c	.	8eeJ
.	.	.	16eJJ	.	.
4T	4V7/IV	.	16fLL	.	8ddL
.	.	.	16d	.	.
.	.	.	16B	.	8bJ)
.	.	.	16FJJ	.	.
=150	=150	=150	=150	=150	=150
2T	2IVc	[2GGG [2GG	16ELL	2g	4.gg
.	.	.	16C	.	.
.	.	.	16E	.	.
.	.	.	16GJJ	.	.
.	.	.	16cLL	.	.
.	.	.	16G	.	.
.	.	.	16c	.	(16.eeLL
.	.	.	16eJJ	.	.
.	.	.	.	.	32ccJJk)
=151	=151	=151	=151	=151	=151
*	*	*	*	*^	*
4T	4I	2GGG] 2GG]	16BLL	2d	(4.d	8ddL
.	.	.	16G	.	.	.
.	.	.	16D	.	.	(16.bL
.	.	.	16BBJJ	.	.	.
.	.	.	.	.	.	32gJJk)
4D	4V7	.	16CLL	.	.	8aL
.	.	.	16D	.	.	.
.	.	.	16F#	.	8c)	(16.aL
.	.	.	16DJJ	.	.	.
.	.	.	.	.	.	32bJJk)
*	*	*	*	*v	*v	*
=152	=152	=152	=152	=152	=152
4T	4I	8GGG 8GG	8G)	8B 8d	8g
.	.	8r	8r	8r	8r
4D	4V7	8DL	8F#L	8cL 8d	8aL
.	.	8DJ	8F#J	8cJ 8d	(16.aL
.	.	.	.	.	32bJJk)
=153	=153	=153	=153	=153	=153
4T	4I	8GG	8G	8B 8d	32g'LLL
.	.	.	.	.	32a'
.	.	.	.	.	32b'
.	.	.	.	.	32cc'JJ
.	.	8r	8r	8r	32dd'LL
.	.	.	.	.	32ee'
.	.	.	.	.	32ff#'
.	.	.	.	.	32gg'JJJ
*	*	*	*clefG2	*	*
4D	4V7	8dL	8f#L	8ccL 8dd	8aaL
.	.	8dJ	8f#J	8ccJ 8dd	(16.aaL
.	.	.	.	.	32bbJJk)
=154	=154	=154	=154	=154	=154
2T	2I	8G	8g	8b 8dd	8gg'L
.	.	8r	8r	8r	8bb'J
.	.	8G	8g	8b 8dd	8ddd'L
.	.	8r	8r	8r	8bb'J
=155	=155	=155	=155	=155	=155
2T	2I	8G	8g	8b 8dd	8gg
.	.	8r	8r	8r	8r
.	.	4r	4r	4r	4r
==156	==	==	==	==	==
*-	*-	*-	*-	*-	*-
